X: 335
T: Canjun cui gongrong
L: 1/8
M: 2/4
K: G
A2A B [I:setbarnb 1]| 
A G E G | 
A2B G | 
A4 | 
D2D E | 
A G F E | 
G2A E | 
G4 | 
G A B d | 
A3B | 
D E G F | 
E4 | 
E2E G | 
E D C B, | 
D4 | 
E A F E | 
D D E B, | 
D4 |]

@@@ Tune index: 9209
